X:1604
M:3/4
L:1/8
K:D
|: a>g g>f f2 | g>f f>e e>f | g>f e>d c>B | (3ABc d>A F>D | 
   a>g g>f f2 | g>f f>e e>f | g>f e>d c>B | (3ABc d4 :| 
|: A>F A>d f>a | a2 e>c e>f | g>f e>d c>B | (3ABc d>A F>D | 
   D>F A>d f>a | a2 e>c e>f | g>f e>d c>B | (3ABc d4 :|

(:musicend:)
(:music:)
